icons/svg/recents-active_24.svg

<?xml version="1.0" encoding="UTF-8"?>
<svg width="24px" height="24px" viewBox="0 0 24 24" version="1.1" xmlns="http://www.w3.org/2000/svg" xmlns:xlink="http://www.w3.org/1999/xlink">
    <!-- Generator: Sketch 59.1 (86144) - https://sketch.com -->
    <title>recents-active_24</title>
    <desc>Created with Sketch.</desc>
    <g id="Icons-Webex" stroke="none" stroke-width="1" fill="none" fill-rule="evenodd">
        <g id="phone/recents-active_24" fill="#171B1F">
            <path d="M15.0005227,17.4919475 C14.8735227,17.4919475 14.7455227,17.4449475 14.6475227,17.3499475 L11.836,14.0065811 C11.619,13.7965811 11.5,13.5175811 11.5,13.2205811 L11.5,6.03024939 C11.5,5.76324939 11.724,5.54624939 12,5.54624939 C12.276,5.54624939 12.5,5.76324939 12.5,6.03024939 L12.5,13.2205811 C12.5,13.2575811 12.516,13.2945811 12.543,13.3215811 L15.3545227,16.6649475 C15.5495227,16.8539475 15.5495227,17.1609475 15.3545227,17.3499475 C15.2565227,17.4449475 15.1285227,17.4919475 15.0005227,17.4919475 Z M0,12 C0,18.6272727 5.37272727,24 12,24 C18.6272727,24 24,18.6272727 24,12 C24,5.37272727 18.6272727,0 12,0 C5.37272727,0 0,5.37272727 0,12 Z" id="fill"></path>
        </g>
    </g>
</svg>

<svg width="24" height="24" xmlns="http://www.w3.org/2000/svg"><path d="M15 17.492a.506.506 0 01-.352-.142l-2.812-3.343a1.086 1.086 0 01-.336-.786V6.03c0-.268.224-.485.5-.485s.5.217.5.484v7.19c0 .038.016.075.043.102l2.812 3.343a.474.474 0 010 .685.507.507 0 01-.354.142zM0 12c0 6.627 5.373 12 12 12s12-5.373 12-12S18.627 0 12 0 0 5.373 0 12z" fill="#171B1F" fill-rule="evenodd"/></svg>
